bicons/scalable/emblems/firewall.svg

<?xml version="1.0" encoding="UTF-8" standalone="no"?>
<!-- Created with Inkscape (http://www.inkscape.org/) -->

<svg
   xmlns:dc="http://purl.org/dc/elements/1.1/"
   xmlns:cc="http://creativecommons.org/ns#"
   xmlns:rdf="http://www.w3.org/1999/02/22-rdf-syntax-ns#"
   xmlns:svg="http://www.w3.org/2000/svg"
   xmlns="http://www.w3.org/2000/svg"
   xmlns:sodipodi="http://sodipodi.sourceforge.net/DTD/sodipodi-0.dtd"
   xmlns:inkscape="http://www.inkscape.org/namespaces/inkscape"
   width="210mm"
   height="297mm"
   viewBox="0 0 744.09448819 1052.3622047"
   id="svg2"
   version="1.1"
   inkscape:version="0.91 r13725"
   inkscape:export-xdpi="4"
   inkscape:export-ydpi="4"
   sodipodi:docname="firewall.svg">
  <title
     id="title4152">firewall</title>
  <defs
     id="defs4" />
  <sodipodi:namedview
     id="base"
     pagecolor="#ffffff"
     bordercolor="#666666"
     borderopacity="1.0"
     inkscape:pageopacity="0.0"
     inkscape:pageshadow="2"
     inkscape:zoom="0.70710678"
     inkscape:cx="221.41145"
     inkscape:cy="535.05362"
     inkscape:document-units="px"
     inkscape:current-layer="layer1"
     showgrid="false"
     showguides="true"
     inkscape:guide-bbox="true"
     inkscape:window-width="1280"
     inkscape:window-height="962"
     inkscape:window-x="-8"
     inkscape:window-y="-8"
     inkscape:window-maximized="1">
    <sodipodi:guide
       position="560,730.00002"
       orientation="0,1"
       id="guide3338" />
    <sodipodi:guide
       position="560,330.00001"
       orientation="0,1"
       id="guide3340" />
    <sodipodi:guide
       position="190,475.00001"
       orientation="1,0"
       id="guide3344" />
    <sodipodi:guide
       position="590,451.00001"
       orientation="1,0"
       id="guide3346" />
    <inkscape:grid
       type="xygrid"
       id="grid3440" />
  </sodipodi:namedview>
  <metadata
     id="metadata7">
    <rdf:RDF>
      <cc:Work
         rdf:about="">
        <dc:format>image/svg+xml</dc:format>
        <dc:type
           rdf:resource="http://purl.org/dc/dcmitype/StillImage" />
        <dc:title>firewall</dc:title>
        <dc:date>June 2015</dc:date>
        <dc:creator>
          <cc:Agent>
            <dc:title>Johannes Hechler</dc:title>
          </cc:Agent>
        </dc:creator>
        <dc:rights>
          <cc:Agent>
            <dc:title>Johannes Hechler</dc:title>
          </cc:Agent>
        </dc:rights>
        <dc:publisher>
          <cc:Agent>
            <dc:title>RRZE</dc:title>
          </cc:Agent>
        </dc:publisher>
        <dc:contributor>
          <cc:Agent>
            <dc:title>Ute Weber, Hendrik Eggers, Joanna Barbach</dc:title>
          </cc:Agent>
        </dc:contributor>
        <dc:subject>
          <rdf:Bag>
            <rdf:li>firewall</rdf:li>
            <rdf:li>security</rdf:li>
            <rdf:li>safe</rdf:li>
          </rdf:Bag>
        </dc:subject>
        <cc:license
           rdf:resource="http://creativecommons.org/licenses/by-sa/3.0/" />
      </cc:Work>
      <cc:License
         rdf:about="http://creativecommons.org/licenses/by-sa/3.0/">
        <cc:permits
           rdf:resource="http://creativecommons.org/ns#Reproduction" />
        <cc:permits
           rdf:resource="http://creativecommons.org/ns#Distribution" />
        <cc:requires
           rdf:resource="http://creativecommons.org/ns#Notice" />
        <cc:requires
           rdf:resource="http://creativecommons.org/ns#Attribution" />
        <cc:permits
           rdf:resource="http://creativecommons.org/ns#DerivativeWorks" />
        <cc:requires
           rdf:resource="http://creativecommons.org/ns#ShareAlike" />
      </cc:License>
    </rdf:RDF>
  </metadata>
  <g
     inkscape:label="Ebene 1"
     inkscape:groupmode="layer"
     id="layer1">
    <rect
       style="opacity:1;fill:none;fill-opacity:1;stroke:none;stroke-width:23;stroke-linecap:butt;stroke-linejoin:round;stroke-miterlimit:4;stroke-dasharray:none;stroke-opacity:1"
       id="rect4160"
       width="400"
       height="400"
       x="190"
       y="322.36221" />
    <path
       style="color:#252525;clip-rule:nonzero;display:inline;overflow:visible;visibility:visible;opacity:1;isolation:auto;mix-blend-mode:normal;color-interpolation:sRGB;color-interpolation-filters:linearRGB;solid-color:#252525;solid-opacity:1;fill:#4e505d;fill-opacity:1;fill-rule:nonzero;stroke:none;stroke-width:23;stroke-linecap:butt;stroke-linejoin:round;stroke-miterlimit:4;stroke-dasharray:none;stroke-dashoffset:0;stroke-opacity:1;color-rendering:auto;image-rendering:auto;shape-rendering:auto;text-rendering:auto;enable-background:accumulate"
       d="m 327.19141,378.47656 c -12.34329,0 -22.2793,9.93601 -22.2793,22.2793 l 0,11.14062 c 0,12.34329 9.93601,22.2793 22.2793,22.2793 l 122.54297,0 c 12.34329,0 22.27929,-9.93601 22.27929,-22.2793 l 0,-11.14062 c 0,-12.34329 -9.93601,-22.2793 -22.27929,-22.2793 l -122.54297,0 z m -89.00391,0.004 c -12.34328,0 -22.28125,9.93601 -22.28125,22.2793 l 0,11.14062 c 0,12.34329 9.93797,22.2793 22.28125,22.2793 l 33.41992,0 c 12.34328,0 22.2793,-9.93601 22.2793,-22.2793 l 0,-11.14062 c 0,-12.34329 -9.93602,-22.2793 -22.2793,-22.2793 l -33.41992,0 z m 267.36328,0 c -12.34329,0 -22.28125,9.93601 -22.28125,22.2793 l 0,11.14062 c 0,12.34329 9.93796,22.2793 22.28125,22.2793 l 33.41992,0 c 12.34329,0 22.28125,-9.93601 22.28125,-22.2793 l 0,-11.14062 c 0,-12.34329 -9.93796,-22.2793 -22.28125,-22.2793 l -33.41992,0 z M 238.1875,445.32031 c -12.34328,0 -22.28125,9.93796 -22.28125,22.28125 l 0,11.13867 c 0,12.34329 9.93797,22.28125 22.28125,22.28125 l 122.54102,0 c 12.34329,0 22.28125,-9.93796 22.28125,-22.28125 l 0,-11.13867 c 0,-12.34329 -9.93796,-22.28125 -22.28125,-22.28125 l -122.54102,0 z m 178.24219,0 c -12.34329,0 -22.28125,9.93796 -22.28125,22.28125 l 0,11.13867 c 0,12.34329 9.93796,22.28125 22.28125,22.28125 l 122.54101,0 c 12.34329,0 22.28125,-9.93796 22.28125,-22.28125 l 0,-11.13867 c 0,-12.34329 -9.93796,-22.28125 -22.28125,-22.28125 l -122.54101,0 z m -89.13281,67.18555 c -12.3433,0 -22.28126,9.93602 -22.28126,22.2793 l 0,11.14062 c 0,12.34328 9.93796,22.28125 22.28126,22.28125 l 95.86328,0 a 63,94 0 0 1 44.67968,-46.57617 c -4.04549,-5.538 -10.5879,-9.125 -18.00195,-9.125 l -122.54101,0 z m -89.00586,0.004 c -12.34328,0 -22.28125,9.936 -22.28125,22.27929 l 0,11.14063 c 0,12.34329 9.93797,22.28125 22.28125,22.28125 l 33.41992,0 c 12.34329,0 22.28125,-9.93796 22.28125,-22.28125 l 0,-11.14063 c 0,-12.34329 -9.93796,-22.27929 -22.28125,-22.27929 l -33.41992,0 z m 267.36328,0 c -7.39689,0 -13.92694,3.56978 -17.97461,9.08593 a 63,94 0 0 1 45.11523,46.61524 l 6.2793,0 c 12.34329,0 22.28125,-9.93796 22.28125,-22.28125 l 0,-11.14063 c 0,-12.34329 -9.93796,-22.27929 -22.28125,-22.27929 l -33.41992,0 z M 238.29102,579.3497 c -12.34328,0 -22.28125,9.93797 -22.28125,22.28125 l 0,11.14062 c 0,12.34329 9.93797,22.2793 22.28125,22.2793 l 122.54101,0 c 12.34329,0 22.28125,-9.93601 22.28125,-22.2793 l 0,-11.14062 c 0,-12.34328 -9.93796,-22.28125 -22.28125,-22.28125 l -122.54101,0 z m 178.24218,0 c -12.34328,0 -22.27929,9.93797 -22.27929,22.28125 l 0,11.14062 c 0,12.34329 9.93601,22.2793 22.27929,22.2793 l 0.0918,0 A 63,94 0 0 1 415,614.36133 a 63,94 0 0 1 4.58398,-35.01172 l -3.05078,0 z m 119.90039,0 A 63,94 0 0 1 541,614.36133 a 63,94 0 0 1 -1.59961,20.68164 c 12.1911,-0.17392 21.95508,-10.03756 21.95508,-22.27149 l 0,-11.14062 c 0,-12.34328 -9.93796,-22.28125 -22.28125,-22.28125 l -2.64063,0 z"
       id="rect4178"
       inkscape:connector-curvature="0" />
    <path
       inkscape:connector-curvature="0"
       id="path4351"
       d="m 440.24282,449.63672 c 0,0 5.12412,41.20951 -11.89661,85.12791 -8.01589,20.68324 -17.52943,33.18905 -24.87133,46.7411 -4.32572,-12.268 -8.06842,-27.95287 -10.19907,-47.48379 0,0 -9.34633,22.23633 -19.93265,42.97636 -16.46821,32.26353 -18.42441,73.63021 1.44773,107.82937 6.4623,11.12137 16.75735,19.58426 27.7291,25.77144 a 72.283252,97.253829 84.618997 0 0 17.83467,9.22706 64.366028,64.366028 0 0 1 -10.54131,-15.38072 l -0.0992,0.24641 c -5.41723,-9.42761 -23.01568,-57.34426 -15.79826,-75.31559 6.20611,-15.45318 1.85841,-32.9895 1.85841,-32.9895 0,0 14.12544,11.48941 20.2578,20.27834 9.18176,-12.17252 26.66467,-36.23974 30.23439,-47.69258 7.4785,-23.99347 6.19472,-39.65312 6.19472,-39.6531 0,-2e-5 31.8604,13.21974 52.04257,42.75047 36.30491,53.12165 27.72409,103.58737 27.41424,105.33093 a 64.366028,64.366028 0 0 1 -13.72423,38.53738 72.283252,97.253829 84.618997 0 0 35.11489,-27.53062 c 13.71696,-14.40714 19.8348,-35.47709 15.38072,-65.33214 -2.29584,-15.38868 -7.71449,-37.17911 -9.21337,-51.46075 -1.4989,-14.28165 -3.86448,-25.163 10.60632,-45.16677 0,0 -23.74157,12.19103 -33.42072,28.3486 -0.59977,1.00117 -1.1242,1.98556 -1.60858,2.95704 -0.39185,-0.89824 -0.76137,-1.79262 -1.16708,-2.69351 -29.25711,-64.96568 -93.64309,-105.42334 -93.64309,-105.42334 z"
       style="fill:#4e505d;fill-rule:evenodd;stroke:#ffffff;stroke-width:35;stroke-linecap:butt;stroke-linejoin:miter;stroke-miterlimit:4;stroke-dasharray:none;stroke-opacity:1" />
    <path
       style="fill:#4e505d;fill-rule:evenodd;stroke:none;stroke-width:1px;stroke-linecap:butt;stroke-linejoin:miter;stroke-opacity:1"
       d="m 440.24282,449.63672 c 0,0 5.12412,41.20951 -11.89661,85.12791 -8.01589,20.68324 -17.52943,33.18905 -24.87133,46.7411 -4.32572,-12.268 -8.06842,-27.95287 -10.19907,-47.48379 0,0 -9.34633,22.23633 -19.93265,42.97636 -16.46821,32.26353 -18.42441,73.63021 1.44773,107.82937 6.4623,11.12137 16.75735,19.58426 27.7291,25.77144 5.41183,3.59803 11.39616,6.69413 17.83467,9.22706 -4.24169,-4.58808 -7.79271,-9.76934 -10.54131,-15.38072 l -0.0992,0.24641 c -5.41723,-9.42761 -14.69971,-25.95315 -18.63405,-44.20594 -3.93434,-18.25279 1.81893,-33.43725 3.32542,-41.18902 2.28524,-11.75883 1.36878,-22.91013 1.36878,-22.91013 0,0 13.87544,11.23941 20.0078,30.27834 16.68176,-23.42252 26.91467,-46.23974 30.48439,-57.69258 7.4785,-23.99347 6.19472,-39.65312 6.19472,-39.6531 0,-2e-5 31.8604,13.21974 52.04257,42.75047 36.30491,53.12165 27.72409,103.58737 27.41424,105.33093 -0.2623,13.99644 -5.08048,27.52581 -13.72423,38.53738 14.52758,-6.88356 26.62635,-16.36919 35.11489,-27.53062 13.71696,-14.40714 19.8348,-35.47709 15.38072,-65.33214 -2.29584,-15.38868 -7.71449,-37.17911 -9.21337,-51.46075 -1.4989,-14.28165 -3.86448,-25.163 10.60632,-45.16677 0,0 -23.74157,12.19103 -33.42072,28.3486 -0.59977,1.00117 -1.1242,1.98556 -1.60858,2.95704 -0.39185,-0.89824 -0.76137,-1.79262 -1.16708,-2.69351 -29.25711,-64.96568 -93.64309,-105.42334 -93.64309,-105.42334 z"
       id="path4295"
       inkscape:connector-curvature="0"
       sodipodi:nodetypes="csccsscccczsccscscccsscccscc" />
  </g>
</svg>

<?xml version="1.0" encoding="UTF-8" standalone="no"?>
<!-- Created with Inkscape (http://www.inkscape.org/) -->

<svg
   xmlns:dc="http://purl.org/dc/elements/1.1/"
   xmlns:cc="http://creativecommons.org/ns#"
   xmlns:rdf="http://www.w3.org/1999/02/22-rdf-syntax-ns#"
   xmlns:svg="http://www.w3.org/2000/svg"
   xmlns="http://www.w3.org/2000/svg"
   xmlns:sodipodi="http://sodipodi.sourceforge.net/DTD/sodipodi-0.dtd"
   xmlns:inkscape="http://www.inkscape.org/namespaces/inkscape"
   width="210mm"
   height="297mm"
   viewBox="0 0 744.09448819 1052.3622047"
   id="svg2"
   version="1.1"
   inkscape:version="0.91 r13725"
   inkscape:export-xdpi="4"
   inkscape:export-ydpi="4"
   sodipodi:docname="firewall.svg">
  <title
     id="title4152">firewall</title>
  <defs
     id="defs4" />
  <sodipodi:namedview
     id="base"
     pagecolor="#ffffff"
     bordercolor="#666666"
     borderopacity="1.0"
     inkscape:pageopacity="0.0"
     inkscape:pageshadow="2"
     inkscape:zoom="1.4142136"
     inkscape:cx="491.21814"
     inkscape:cy="469.08172"
     inkscape:document-units="px"
     inkscape:current-layer="layer1"
     showgrid="false"
     showguides="true"
     inkscape:guide-bbox="true"
     inkscape:window-width="1600"
     inkscape:window-height="837"
     inkscape:window-x="-4"
     inkscape:window-y="-4"
     inkscape:window-maximized="1">
    <sodipodi:guide
       position="560,730.00002"
       orientation="0,1"
       id="guide3338" />
    <sodipodi:guide
       position="560,330.00001"
       orientation="0,1"
       id="guide3340" />
    <sodipodi:guide
       position="190,475.00001"
       orientation="1,0"
       id="guide3344" />
    <sodipodi:guide
       position="590,451.00001"
       orientation="1,0"
       id="guide3346" />
    <inkscape:grid
       type="xygrid"
       id="grid3440" />
  </sodipodi:namedview>
  <metadata
     id="metadata7">
    <rdf:RDF>
      <cc:Work
         rdf:about="">
        <dc:format>image/svg+xml</dc:format>
        <dc:type
           rdf:resource="http://purl.org/dc/dcmitype/StillImage" />
        <dc:title>firewall</dc:title>
        <dc:date>June 2015</dc:date>
        <dc:creator>
          <cc:Agent>
            <dc:title>Johannes Hechler</dc:title>
          </cc:Agent>
        </dc:creator>
        <dc:rights>
          <cc:Agent>
            <dc:title>Johannes Hechler</dc:title>
          </cc:Agent>
        </dc:rights>
        <dc:publisher>
          <cc:Agent>
            <dc:title>RRZE</dc:title>
          </cc:Agent>
        </dc:publisher>
        <dc:contributor>
          <cc:Agent>
            <dc:title>Ute Weber, Hendrik Eggers, Joanna Barbach</dc:title>
          </cc:Agent>
        </dc:contributor>
        <dc:subject>
          <rdf:Bag>
            <rdf:li>firewall</rdf:li>
            <rdf:li>security</rdf:li>
            <rdf:li>safe</rdf:li>
          </rdf:Bag>
        </dc:subject>
        <cc:license
           rdf:resource="http://creativecommons.org/licenses/by-sa/3.0/" />
      </cc:Work>
      <cc:License
         rdf:about="http://creativecommons.org/licenses/by-sa/3.0/">
        <cc:permits
           rdf:resource="http://creativecommons.org/ns#Reproduction" />
        <cc:permits
           rdf:resource="http://creativecommons.org/ns#Distribution" />
        <cc:requires
           rdf:resource="http://creativecommons.org/ns#Notice" />
        <cc:requires
           rdf:resource="http://creativecommons.org/ns#Attribution" />
        <cc:permits
           rdf:resource="http://creativecommons.org/ns#DerivativeWorks" />
        <cc:requires
           rdf:resource="http://creativecommons.org/ns#ShareAlike" />
      </cc:License>
    </rdf:RDF>
  </metadata>
  <g
     inkscape:label="Ebene 1"
     inkscape:groupmode="layer"
     id="layer1">
    <g
       id="g4166">
      <rect
         y="322.36221"
         x="190"
         height="400"
         width="400"
         id="rect4160"
         style="opacity:1;fill:none;fill-opacity:1;stroke:none;stroke-width:23;stroke-linecap:butt;stroke-linejoin:round;stroke-miterlimit:4;stroke-dasharray:none;stroke-opacity:1" />
      <path
         id="rect4178"
         d="M 327.19141 378.47656 C 314.84812 378.47656 304.91211 388.41257 304.91211 400.75586 L 304.91211 411.89648 C 304.91211 424.23977 314.84812 434.17578 327.19141 434.17578 L 420.68555 434.17578 L 420.43164 432.13672 L 414.71875 412.69141 L 445.28516 432.13672 L 448.5293 434.17578 L 449.73438 434.17578 C 462.07767 434.17578 472.01367 424.23977 472.01367 411.89648 L 472.01367 400.75586 C 472.01367 388.41257 462.07765 378.47656 449.73438 378.47656 L 327.19141 378.47656 z M 238.1875 378.48047 C 225.84422 378.48047 215.90625 388.41648 215.90625 400.75977 L 215.90625 411.90039 C 215.90625 424.24368 225.84422 434.17969 238.1875 434.17969 L 271.60742 434.17969 C 283.9507 434.17969 293.88672 424.24368 293.88672 411.90039 L 293.88672 400.75977 C 293.88672 388.41648 283.9507 378.48047 271.60742 378.48047 L 238.1875 378.48047 z M 505.55078 378.48047 C 493.20749 378.48047 483.26953 388.41648 483.26953 400.75977 L 483.26953 411.90039 C 483.26953 424.24368 493.20749 434.17969 505.55078 434.17969 L 538.9707 434.17969 C 551.31399 434.17969 561.25195 424.24368 561.25195 411.90039 L 561.25195 400.75977 C 561.25195 388.41648 551.31399 378.48047 538.9707 378.48047 L 505.55078 378.48047 z M 238.1875 445.32031 C 225.84422 445.32031 215.90625 455.25827 215.90625 467.60156 L 215.90625 478.74023 C 215.90625 491.08352 225.84422 501.02148 238.1875 501.02148 L 360.72852 501.02148 C 373.07181 501.02148 383.00977 491.08352 383.00977 478.74023 L 383.00977 467.60156 C 383.00977 455.25827 373.07181 445.32031 360.72852 445.32031 L 238.1875 445.32031 z M 416.42969 445.32031 C 404.0864 445.32031 394.14844 455.25827 394.14844 467.60156 L 394.14844 478.74023 C 394.14844 480.84225 394.44321 482.87158 394.98242 484.79688 L 403.33984 464.91406 L 407.05469 498.96484 C 409.90241 500.28132 413.07561 501.02148 416.42969 501.02148 L 419.92578 501.02148 C 425.42054 473.3682 422.87695 451.79688 422.87695 451.79688 L 422.07227 445.32031 L 416.42969 445.32031 z M 464.48828 445.32031 C 478.79099 456.15351 501.08334 475.09213 521.19727 501.02148 L 538.9707 501.02148 C 551.31399 501.02148 561.25195 491.08352 561.25195 478.74023 L 561.25195 467.60156 C 561.25195 455.25827 551.31399 445.32031 538.9707 445.32031 L 464.48828 445.32031 z M 457.43164 485.13086 C 456.97833 490.12208 456.27228 495.4499 455.33398 501.02148 L 474.33008 501.02148 C 468.47974 495.07562 462.73563 489.74427 457.43164 485.13086 z M 327.29688 512.50586 C 314.95358 512.50586 305.01562 522.44188 305.01562 534.78516 L 305.01562 545.92578 C 305.01562 558.26906 314.95358 568.20703 327.29688 568.20703 L 358.17188 568.20703 C 361.24476 562.12954 363.76787 556.54659 366.44141 550.79688 L 366.18555 549.76172 L 366.72656 550.20117 C 372.48958 537.77878 377.14258 527.24023 377.14258 527.24023 L 383.33594 512.50586 L 327.29688 512.50586 z M 408.53125 512.50586 L 410.61719 531.62695 C 411.07893 530.51847 411.57782 529.60635 412.0293 528.44141 C 414.11554 523.05829 415.82391 517.72038 417.23633 512.50586 L 408.53125 512.50586 z M 238.29102 512.50977 C 225.94774 512.50977 216.00977 522.44577 216.00977 534.78906 L 216.00977 545.92969 C 216.00977 558.27298 225.94774 568.21094 238.29102 568.21094 L 271.71094 568.21094 C 284.05423 568.21094 293.99219 558.27298 293.99219 545.92969 L 293.99219 534.78906 C 293.99219 522.44577 284.05423 512.50977 271.71094 512.50977 L 238.29102 512.50977 z M 529.59766 512.50977 C 532.66483 516.9464 535.6482 521.53689 538.48633 526.31055 C 543.23687 522.21454 547.90172 518.97328 551.8418 516.51172 C 548.23005 513.99016 543.83224 512.50977 539.07422 512.50977 L 529.59766 512.50977 z M 490.23242 518.6875 C 489.30027 519.58051 488.44519 520.55247 487.67969 521.5957 A 63 94 0 0 1 494.21484 523.68359 C 492.89897 521.9871 491.57218 520.32173 490.23242 518.6875 z M 238.29102 579.34961 C 225.94774 579.34961 216.00977 589.28758 216.00977 601.63086 L 216.00977 612.77148 C 216.00977 625.11477 225.94774 635.05078 238.29102 635.05078 L 342.97852 635.05078 C 342.32711 615.80703 345.94105 596.71075 353.03711 579.34961 L 238.29102 579.34961 z M 543.125 580.7832 L 538.71484 589.62891 A 63 94 0 0 1 540.61133 604.76367 C 544.18696 614.90038 546.52809 624.46712 548.02344 633.1875 C 549.45516 632.56249 550.80416 631.78669 552.05859 630.88867 C 551.87431 629.201 551.64952 627.45899 551.38086 625.6582 C 549.60623 613.76315 545.41333 596.20336 543.125 580.7832 z M 379.32422 615.13477 C 379.09059 616.62734 378.8268 618.1051 378.66016 619.60938 C 378.99481 618.15346 379.18572 616.65766 379.32422 615.13477 z "
         style="color:#252525;clip-rule:nonzero;display:inline;overflow:visible;visibility:visible;opacity:1;isolation:auto;mix-blend-mode:normal;color-interpolation:sRGB;color-interpolation-filters:linearRGB;solid-color:#252525;solid-opacity:1;fill:#4e505d;fill-opacity:1;fill-rule:nonzero;stroke:none;stroke-width:23;stroke-linecap:butt;stroke-linejoin:round;stroke-miterlimit:4;stroke-dasharray:none;stroke-dashoffset:0;stroke-opacity:1;color-rendering:auto;image-rendering:auto;shape-rendering:auto;text-rendering:auto;enable-background:accumulate" />
      <path
         sodipodi:nodetypes="csccsscccczsccscscccsscccscc"
         inkscape:connector-curvature="0"
         id="path4295"
         d="m 440.24282,449.63672 c 0,0 5.12412,41.20951 -11.89661,85.12791 -8.01589,20.68324 -17.52943,33.18905 -24.87133,46.7411 -4.32572,-12.268 -8.06842,-27.95287 -10.19907,-47.48379 0,0 -9.34633,22.23633 -19.93265,42.97636 -16.46821,32.26353 -18.42441,73.63021 1.44773,107.82937 6.4623,11.12137 16.75735,19.58426 27.7291,25.77144 5.41183,3.59803 11.39616,6.69413 17.83467,9.22706 -4.24169,-4.58808 -7.79271,-9.76934 -10.54131,-15.38072 l -0.0992,0.24641 c -5.41723,-9.42761 -14.69971,-25.95315 -18.63405,-44.20594 -3.93434,-18.25279 1.81893,-33.43725 3.32542,-41.18902 2.28524,-11.75883 1.36878,-22.91013 1.36878,-22.91013 0,0 13.87544,11.23941 20.0078,30.27834 16.68176,-23.42252 26.91467,-46.23974 30.48439,-57.69258 7.4785,-23.99347 6.19472,-39.65312 6.19472,-39.6531 0,-2e-5 31.8604,13.21974 52.04257,42.75047 36.30491,53.12165 27.72409,103.58737 27.41424,105.33093 -0.2623,13.99644 -5.08048,27.52581 -13.72423,38.53738 14.52758,-6.88356 26.62635,-16.36919 35.11489,-27.53062 13.71696,-14.40714 19.8348,-35.47709 15.38072,-65.33214 -2.29584,-15.38868 -7.71449,-37.17911 -9.21337,-51.46075 -1.4989,-14.28165 -3.86448,-25.163 10.60632,-45.16677 0,0 -23.74157,12.19103 -33.42072,28.3486 -0.59977,1.00117 -1.1242,1.98556 -1.60858,2.95704 -0.39185,-0.89824 -0.76137,-1.79262 -1.16708,-2.69351 -29.25711,-64.96568 -93.64309,-105.42334 -93.64309,-105.42334 z"
         style="fill:#4e505d;fill-rule:evenodd;stroke:none;stroke-width:1px;stroke-linecap:butt;stroke-linejoin:miter;stroke-opacity:1" />
    </g>
  </g>
</svg>
